images/LOGOS_CLIENTES/HSBC.svg

<svg width="119" height="32" viewBox="0 0 119 32" fill="none" xmlns="http://www.w3.org/2000/svg">
<path d="M47.9798 0H16.0176V31.9623H47.9798V0Z" fill="white"/>
<path d="M63.9596 16.0187L47.9785 0V31.9999L63.9596 16.0187Z" fill="black"/>
<path d="M31.9987 16.0187L47.9798 0H16.0176L31.9987 16.0187Z" fill="black"/>
<path d="M-0.00195312 16.0187L16.0168 31.9999V0L-0.00195312 16.0187Z" fill="black"/>
<path d="M31.9987 16.019L16.0176 32.0002H47.9798L31.9987 16.019Z" fill="black"/>
<path d="M77.985 16.9588H72.1942V22.6744H69.2988V9.28784H72.1942V14.7778H77.985V9.28784H80.8804V22.6744H77.985V16.9588Z" fill="black"/>
<path d="M87.8762 22.9376C84.9808 22.9376 82.6118 21.772 82.5742 18.5757H85.4696C85.5072 20.0046 86.3345 20.8695 87.9138 20.8695C89.0795 20.8695 90.4332 20.2678 90.4332 18.9518C90.4332 17.8989 89.5307 17.5981 88.0266 17.1468L87.0489 16.8836C84.9432 16.282 82.8374 15.4547 82.8374 13.0481C82.8374 10.0775 85.62 9.06226 88.1394 9.06226C90.734 9.06226 92.9902 9.96472 93.0278 12.9353H90.1324C90.0195 11.732 89.3051 11.0176 87.9514 11.0176C86.8609 11.0176 85.808 11.5816 85.808 12.7849C85.808 13.7626 86.7105 14.0634 88.5906 14.6651L89.7187 15.0035C92.0125 15.7179 93.479 16.5076 93.479 18.7637C93.4414 21.772 90.5084 22.9376 87.8762 22.9376Z" fill="black"/>
<path d="M95.0938 9.32533H99.7565C100.621 9.28773 101.524 9.32533 102.389 9.47574C104.006 9.85177 105.246 10.9046 105.246 12.7096C105.246 14.4393 104.156 15.3042 102.577 15.7178C104.382 16.0562 105.735 16.9587 105.735 18.9516C105.735 21.9974 102.727 22.6743 100.396 22.6743H95.1314L95.0938 9.32533ZM99.7565 14.8905C101.035 14.8905 102.351 14.6273 102.351 13.0856C102.351 11.6943 101.148 11.3183 99.9445 11.3183H97.9139V14.8905H99.7565ZM100.02 20.6813C101.373 20.6813 102.689 20.3805 102.689 18.726C102.689 17.0715 101.561 16.7707 100.17 16.7707H97.8763V20.6813H100.02Z" fill="black"/>
<path d="M113.258 22.9376C108.933 22.9376 107.016 20.1926 107.016 16.094C107.016 11.9953 109.159 9.02466 113.408 9.02466C116.078 9.02466 118.672 10.2279 118.748 13.2362H115.739C115.589 11.8825 114.687 11.2056 113.408 11.2056C110.776 11.2056 109.986 14.0258 109.986 16.1692C109.986 18.3125 110.776 20.7943 113.295 20.7943C114.611 20.7943 115.589 20.0798 115.777 18.7261H118.785C118.484 21.8096 116.04 22.9376 113.258 22.9376Z" fill="black"/>
</svg>

<svg width="119" height="32" fill="none" xmlns="http://www.w3.org/2000/svg"><path d="M47.98 0H16.018v31.962H47.98V0Z" fill="#fff"/><path d="M63.96 16.019 47.978 0v32L63.96 16.019Z" fill="#000"/><path d="M31.999 16.019 47.979 0H16.019l15.98 16.019ZM-.002 16.019l16.019 15.98V0L-.002 16.019ZM31.999 16.019 16.018 32H47.98L31.999 16.02ZM77.985 16.959h-5.79v5.715h-2.896V9.288h2.895v5.49h5.791v-5.49h2.895v13.386h-2.895V16.96ZM87.876 22.938c-2.895 0-5.264-1.166-5.302-4.362h2.896c.037 1.429.865 2.293 2.444 2.293 1.165 0 2.52-.601 2.52-1.917 0-1.053-.903-1.354-2.407-1.805l-.978-.263c-2.106-.602-4.212-1.43-4.212-3.836 0-2.97 2.783-3.986 5.302-3.986 2.595 0 4.851.903 4.889 3.873h-2.896c-.113-1.203-.827-1.917-2.18-1.917-1.091 0-2.144.564-2.144 1.767 0 .978.902 1.278 2.783 1.88l1.128.339c2.294.714 3.76 1.504 3.76 3.76-.038 3.008-2.97 4.174-5.603 4.174ZM95.094 9.325h4.663c.864-.037 1.767 0 2.632.15 1.617.377 2.857 1.43 2.857 3.235 0 1.73-1.09 2.594-2.669 3.008 1.805.338 3.158 1.24 3.158 3.234 0 3.045-3.008 3.722-5.339 3.722h-5.265l-.037-13.349Zm4.663 5.566c1.278 0 2.594-.264 2.594-1.805 0-1.392-1.203-1.768-2.406-1.768h-2.031v3.572h1.843Zm.263 5.79c1.353 0 2.669-.3 2.669-1.955 0-1.654-1.128-1.955-2.519-1.955h-2.294v3.91h2.144ZM113.258 22.938c-4.325 0-6.242-2.745-6.242-6.844s2.143-7.07 6.392-7.07c2.67 0 5.264 1.204 5.34 4.212h-3.009c-.15-1.354-1.052-2.03-2.331-2.03-2.632 0-3.422 2.82-3.422 4.963 0 2.143.79 4.625 3.309 4.625 1.316 0 2.294-.714 2.482-2.068h3.008c-.301 3.084-2.745 4.212-5.527 4.212Z" fill="#000"/></svg>
